!!!!SEGMENT: pl-sa--11-a-i-11--001-004_anonim--passio-domini-nostri-tolle-crucifige.krn
!!!cenid: 18xx:1326
!!!COM: Anonim
!!!COM-rismID: pe30004985
!!!CDT:
!!!CNT:
!!!OPR: Passio Domini Nostri
!!!OTL: Tolle crucifige
!!!OMV: 004
!!!PDT: 1815
!!!AGN: Sacred
!!!SMS-siglum: PL-SA
!!!SMS-shelfmark: 11/A I 11
!!!SMS-shelfwork: 001-004 M
!!!SMS-variant:
!!!SMS-altvar:
!!!NIFC-rismSourceID: 1001076834
!!!NIFC-rismChildID: 1001076834
!!!NIFC-islandoraID: none
!!!URL-pdf-islandora:
!!!URL-scan: https://bc.bdsandomierz.pl/dlibra/publication/1277/edition/1245/content @EN{Scan in the Sandomierz Diocese Digital Library} @PL{Skany w portalu Cyfrowa Biblioteka Diecezjalna w Sandomierzu}
!!!IIIF:
!!!ONB-nifc: UWAGA: części Pasji: 1. Pars I – Passio Domini nostri, 2. Pars I – Plankt – Witaj Jezu, 3. Pars II – Apprehendit, 4. Pars II – Tolle crucifige, 5. Pars II – Plankt – Oto przybity do krzyża, 6. Pars III – Orabat
!!!AIN: 1 organ 2 soprn 2 violn
!!!key: E-
**kern	**kern	**dynam	**kern	**kern	**text	**kern	**text
*part5	*part4	*part4	*part3	*part2	*part2	*part1	*part1
*staff5	*staff4	*	*staff3	*staff2	*staff2	*staff1	*staff1
*I"Organo.	*I"Violino Secundo.	*	*I"Violino Primo.	*I"Canto 2do.	*	*I"Canto Prima.	*
*I'org	*I'vl II	*	*I'vl I	*I'C II	*	*I'C I	*
*Iorgan	*Ivioln	*	*Ivioln	*Isoprn	*	*Isoprn	*
*ICklav	*ICstr	*	*ICstr	*ICklav	*	*ICklav	*
*clefF4	*clefG2	*	*clefG2	*clefC1	*	*clefC1	*
*k[e-b-a-]	*k[b-e-a-]	*	*k[b-e-a-]	*k[b-e-a-]	*	*k[b-e-a-]	*
*E-:	*E-:	*	*E-:	*E-:	*	*E-:	*
*M3/4	*M3/4	*	*M3/4	*M3/4	*	*M3/4	*
=1	=1	=1	=1	=1	=1	=1	=1
*2\right	*2\right	*	*2\right	*2\right	*	*2\right	*
!LO:TX:t=P:problem=kolejność znaków E- B- A-	!	!	!	!	!	!	!
*	*tremolo	*	*	*	*	*	*
*	*	*	*tremolo	*	*	*	*
!	!	!	!	!LO:TX:t=P:problem=kolejność znaków b- ee- a-	!	!LO:TX:t=P:problem=kolejność znaków b- ee- a-	!
!	!LO:TX:b:t=Tolle crucifige__	!	!LO:TX:b:t=Tolle	!	!	!LO:TX:a:B:t=Tarde	!
8E-\L	8g/L	.	8ee-\L	8g/	Tol-	8ee-\	Tol-
8F\	8g/	.	8ee-\	8g/	-le	8ee-\	-le
8G\	8g/	.	8ee-\	8g/	cru-	8ee-\	cru-
8F\	8g/	.	8ee-\	8g/	-ci-	8ee-\	-ci-
8G\	8g/	.	8ee-\	8g/	-fi-	8ee-\	-fi-
8E-\J	8g/J	.	8ee-\J	8g/	-ge	8ee-\	-ge
!	!	!	!LO:LB:g=original	!	!	!	!
=2	=2	=2	=2	=2	=2	=2	=2
*	*	*	*	*	*ij	*	*
8E-\L	8g/L	.	8ee-\L	8g/	Tol-	8ee-\	Tol-
8F\	8g/	.	8ee-\	8g/	-le	8ee-\	-le
8G\	8g/	.	8ee-\	8g/	cru-	8ee-\	cru-
8F\	8g/	.	8ee-\	8g/	-ci-	8ee-\	-ci-
8G\	8g/	.	8ee-\	8g/	-fi-	8ee-\	-fi-
8E-\J	8g/J	.	8ee-\J	8g/	-ge	8ee-\	-ge
*	*Xtremolo	*	*Xtremolo	*	*Xij	*	*
=3	=3	=3	=3	=3	=3	=3	=3
8r	4g/	.	4ee-\	4g/	E-	4ee-\	E-
8BB-/L	.	.	.	.	.	.	.
*	*	*	*	*tremolo	*	*	*
!	!	!	!	!	!	!LO:TX:t=P:problem=2\right&colon; global	!
8D/	4f/	.	2dd\	8f/L	-um	2dd\	-um
8F/	.	.	.	8f/	.	.	.
8D/	4r	.	.	8f/	.	.	.
8BB-/J	.	.	.	8f/J	.	.	.
*	*	*	*	*Xtremolo	*	*	*
=4	=4	=4	=4	=4	=4	=4	=4
*	*tremolo	*	*tremolo	*	*	*	*
8F\L	8a-/L	.	8ff\L	8a-\	Tol-	8ff\	Tol-
8G\	8a-/	.	8ff\	8a-\	-le	8ff\	-le
8A-\	8a-/	.	8ff\	8a-\	cru-	8ff\	cru-
8G\	8a-/	.	8ff\	8a-\	-ci-	8ff\	-ci-
8A-\	8a-/	.	8ff\	8a-\	-fi-	8ff\	-fi-
8F\J	8a-/J	.	8ff\J	8a-\	-ge	8ff\	-ge
=5	=5	=5	=5	=5	=5	=5	=5
!	!LO:N:vis=2	!	!	!	!	!	!
*	*	*	*	*	*ij	*	*ij
8F\L	8a-/L	.	8ff\L	8a-\	Tol-	8ff\	Tol-
8G\	8a-/	.	8ff\	8a-\	-le	8ff\	-le
8A-\	8a-/	.	8ff\	8a-\	cru-	8ff\	cru-
8G\	8a-/	.	8ff\	8a-\	-ci-	8ff\	-ci-
8A-\	8a-/	.	8ff\	8a-\	-fi-	8ff\	-fi-
8F\J	8a-/J	.	8ff\J	8a-\	-ge	8ff\	-ge
*	*Xtremolo	*	*Xtremolo	*	*Xij	*	*Xij
=6	=6	=6	=6	=6	=6	=6	=6
8r	4a-/	.	4ff\	4a-\	e-	4ff\	e-
8E-\L	.	.	.	.	.	.	.
8G\	4g/	.	4ee-\	4g\	-um	4ee-\	-um
8B-\	.	.	.	.	.	.	.
8G\	4r	.	4r	4r	.	4r	.
8E-\J	.	.	.	.	.	.	.
!LO:LB:g=original	!LO:LB:g=original	!	!	!	!	!	!
=7	=7	=7	=7	=7	=7	=7	=7
!	!	!LO:DY:b:B:t=p.	!	!	!	!	!
8r	4f/	p	4dd\	4f/	et	4dd\	et
8B-\	.	.	.	.	.	.	.
*tremolo	*	*	*	*	*	*	*
8B-\L	4g/	.	4ee-\	4g/	cru-	4ee-\	cru-
8B-\	.	.	.	.	.	.	.
8B-\	4f/	.	4dd\	4f/	-ci-	4dd\	-ci-
8B-\J	.	.	.	.	.	.	.
*Xtremolo	*	*	*	*	*	*	*
!	!	!	!	!LO:LB:g=original	!	!LO:LB:g=original	!
=8	=8	=8	=8	=8	=8	=8	=8
8r	4g/	.	4ee-\	4g\	-fi-	4ee-\	-fi-
8B-\	.	.	.	.	.	.	.
*tremolo	*	*	*	*	*	*	*
8B-\L	4a-/	.	4ff\	4a-\	-xe-	4ff\	-xe-
8B-\	.	.	.	.	.	.	.
8B-\	4g/	.	4ee-\	4g\	-runt	4ee-\	-runt
8B-\J	.	.	.	.	.	.	.
*Xtremolo	*	*	*	*	*	*	*
=9	=9	=9	=9	=9	=9	=9	=9
4B-\	4g/	.	4ee-\	4g/	E-	4ee-\	E-
8B-\L	4f/	.	4dd\	4f/	-um	4dd\	-um
8F\	.	.	.	.	.	.	.
8D\	4r	.	4r	4r	.	4r	.
8BB-\J	.	.	.	.	.	.	.
=10	=10	=10	=10	=10	=10	=10	=10
4E-\	4g/	.	4b-\	4g/	et	4b-\	et
4E-\	4g/	.	4b-\	4g/	cum	4b-\	cum
4r	8a-/L	.	8cc\L	8a-/L	e-	8cc\L	e-
.	8g/J	.	8b-\J	8g/J	-o	8b-\J	-o
=11	=11	=11	=11	=11	=11	=11	=11
4F\	4a-/	.	4cc\	4a-\	a-	4cc\	a-
4F\	4a-/	.	4cc\	4a-\	-lios	4cc\	-lios
4r	8f/L	.	8dd\L	8f/L	du-	8dd\	du-
.	8f/J	.	8dd\J	8f/J	-os	8dd\	-os
=12	=12	=12	=12	=12	=12	=12	=12
4E-\	4g/	.	4ee-\	4g/	hinc	4ee-\	hinc
4BB-/	8r	.	8r	8r	.	8r	.
.	8f/	.	8b-\	8f/	et	8b-\	et
4E-\	4g/	.	4ee-\	4g/	hinc	4ee-\	hinc
=13	=13	=13	=13	=13	=13	=13	=13
4D\	8a-/L	.	8ff\L	8a-\	me-	8ff\	me-
.	8a-/J	.	8ff\J	8a-\	-dium	8ff\	-dium
4r	4g/	.	4ee-\	4g\	au-	4ee-\	au-
4E-\	4g/	.	4ee-\	4g\	-tem	4ee-\	-tem
=14	=14	=14	=14	=14	=14	=14	=14
4E-\	4g/	.	4ee-\	4g/	Je-	4ee-\	Je-
4BB-;/	4f/	.	4dd\	4f/	-sum	4dd\	-sum
4r	4r;	.	4r;	4r;	.	4r;	.
=15||	=15||	=15||	=15||	=15||	=15||	=15||	=15||
*M2/4	*M2/4	*	*M2/4	*M2/4	*	*M2/4	*
!LO:TX:t=P:problem=kolejność znaków E- B- A-	!	!	!LO:TX:t=P:problem=mixed beam	!	!	!LO:TX:t=P:problem=kolejność znaków b- ee- a-	!
!LO:TX:b:t=Vach.	!LO:TX:b:t=Vach__	!	!LO:TX:b:t=Vach.	!LO:TX:t=P:problem=kolejność znaków b- ee- a-	!	!LO:TX:a:t=4	!
4C/	8c/L	.	8cc\L	8cc\	Vach	2r	.
.	8c/	.	8c/	8r	.	.	.
4r	8e-/	.	8e-/	4r	.	.	.
.	8g/J	.	8g/J	.	.	.	.
=16	=16	=16	=16	=16	=16	=16	=16
!	!	!	!LO:TX:t=P:problem=mixed beam	!	!	!	!
4c\	8e-/L	.	8ee-\L	8ee-\	vach	2r	.
.	8e-/	.	8e-/	8r	.	.	.
4r	8g/	.	8g/	4r	.	.	.
.	8b-/J	.	8b-/J	.	.	.	.
=17	=17	=17	=17	=17	=17	=17	=17
8r	8g/L	.	8ee-\L	8ee-\	qui-	2r	.
8E-\	8g/J	.	8b-\J	8b-\	-dae	.	.
!	!	!	!	!LO:LB:g=original	!	!	!
8E-\L	8g/L	.	8b-/L	8b-\	stru-	.	.
8E-\J	16f/L	.	16a-/L	16a-\	-id	.	.
.	16e-/JJ	.	16g/JJ	16g\	.	.	.
!	!	!	!LO:LB:g=original	!	!	!	!
=18	=18	=18	=18	=18	=18	=18	=18
*tremolo	*	*	*	*	*	*	*
8E-\L	8a-/L	.	8cc\L	8cc\	Tem-	2r	.
8E-\	8g/	.	8b-\	8b-\	-plum	.	.
8E-\	8g/	.	8b-\	8b-\	De-	.	.
8E-\J	8e-/J	.	8g\J	8a-\	-j	.	.
*Xtremolo	*	*	*	*	*	*	*
=19	=19	=19	=19	=19	=19	=19	=19
8r	8dd\L	.	8ff\L	8dd\	et	8ff\	et
8BB-/	8dd\J	.	8ff\J	8dd\	in	8ff\	in
8BB-/L	8dd\L	.	8ff\L	8dd\	tri-	8ff\	tri-
8BB-/J	16ee-\L	.	16gg\L	16ee-\	-du-	16gg\	-du-
.	16ff\JJ	.	16aa-\JJ	16ff\	-o	16aa-\	-o
!	!	!	!	!	!	!LO:LB:g=original	!
=20	=20	=20	=20	=20	=20	=20	=20
*tremolo	*	*	*	*	*	*	*
8BB-/L	(8ff\L	.	8aa-\L	8ff\	re-	8gg\	re-
8BB-/	8ee-\	.	8gg\	8ee-\	-di-	8gg\	-di-
8BB-/	8ee-\	.	8gg\	8ee-\	-fi-	8gg\	-fi-
8BB-/J	8dd\J)	.	8ff\J	8dd\	-cans	8ff\	-cans
*Xtremolo	*	*	*	*	*	*	*
=21	=21	=21	=21	=21	=21	=21	=21
8r	8ee-\L	.	8gg\L	8ee-\	il-	8gg\	il-
8GG/	8dd\J	.	8ff\J	8dd\	-lud	8ff\	-lud
8GG/L	16cc\LL	.	16ee-\LL	4r	.	4r	.
.	16cc\J	.	16ee-\J	.	.	.	.
8GG/J	8bn\J	.	8dd\J	.	.	.	.
=22	=22	=22	=22	=22	=22	=22	=22
!	!	!	!	!LO:TX:a:t=2	!	!	!
4C/	8cc\L	.	8een\L	2r	.	8een\	re-
.	8a-\	.	8cc\	.	.	8cc\	-di-
4r	8b-\	.	8dd\	.	.	8dd\	-fi-
.	8g\J	.	8ee\J	.	.	8een\	-cans
!	!LO:LB:g=original	!	!	!	!	!	!
=23	=23	=23	=23	=23	=23	=23	=23
8F\L	4a-/	.	4ff\	2r	.	4ff\	il-
8G\	.	.	.	.	.	.	.
8A-\	4a-/	.	4ff\	.	.	4ff\	-lud
8F\J	.	.	.	.	.	.	.
=24	=24	=24	=24	=24	=24	=24	=24
4BB-/	8f/L	.	8dd\L	8b-\	re-	8dd\	re-
.	8d/	.	8b-\	8g\	-di-	8b-\	-di-
4r	8e-/	.	8cc\	8a-\	-fi-	8cc\	-fi-
.	8f/J	.	8dd\J	8f\	-cans	8dd\	-cans
=25	=25	=25	=25	=25	=25	=25	=25
8E-\L	4g/	.	4ee-X\	4g\	il-	4ee-X\	il-
8F\	.	.	.	.	.	.	.
8G\	4g;/	.	4ee-;\	4g;\	-lud	4ee-;\	-lud
8E-;\J	.	.	.	.	.	.	.
==	==	==	==	==	==	==	==
*-	*-	*-	*-	*-	*-	*-	*-
!!!system-decoration: [(s1,s2)][(s3,s4)][(s5)]
!!!ENC: Andrzej Kubiczek
!!!END: 2020-12-07
!!!ENC: Urszula Świątek
!!!END: 2022-03-27
!!!YEC: Copyright 2022 Narodowy Instytut Fryderyka Chopina (https://polishscores.org)
!!!YEM: License CC-BY-4.0 (https://creativecommons.org/licenses/by/4.0)
